app/dist/common/images/cf-acquisition-viii.svg

<svg height="18" viewBox="0 0 18 18" width="18" xmlns="http://www.w3.org/2000/svg"><path d="m0 0h18v18h-18z" fill="#f0f3fa"/><path d="m5.67 8.23h-.71c-.18-.42-.6-.61-1.04-.61-.85 0-1.27.64-1.27 1.38s.42 1.38 1.27 1.38c.45 0 .87-.17 1.04-.61h.7c-.13.76-.98 1.23-1.75 1.23a2 2 0 0 1 -.98-.24c-.29-.16-.52-.39-.68-.69-.17-.3-.25-.66-.25-1.07 0-.42.08-.77.25-1.07s.4-.53.68-.69c.29-.16.61-.24.98-.24.78 0 1.62.45 1.76 1.23zm.7 2.77v-4h2.63v.62h-2v1.38h1.65v.62h-1.65v1.38zm3.63 0v-4h2.6v.62h-1.95v1.38h1.63v.62h-1.63v1.38zm3.35 0v-4h2.65v.62h-2v1.07h1.67v.62h-1.67v1.07h2v.62z"/></svg>

<!-- by TradingView --><svg width="18" height="18" viewBox="0 0 18 18" xmlns="http://www.w3.org/2000/svg"><path fill="#F0F3FA" d="M0 0h18v18H0z"/><path d="M5.67 8.23h-.71c-.18-.42-.6-.61-1.04-.61-.85 0-1.27.64-1.27 1.38 0 .74.42 1.38 1.27 1.38.45 0 .87-.17 1.04-.61h.7c-.13.76-.98 1.23-1.75 1.23a2 2 0 0 1-.98-.24c-.29-.16-.52-.39-.68-.69C2.08 9.77 2 9.41 2 9c0-.42.08-.77.25-1.07.17-.3.4-.53.68-.69.29-.16.61-.24.98-.24.78 0 1.62.45 1.76 1.23ZM6.37 11V7H9v.62H7V9h1.65v.62H7V11h-.63ZM10 11V7h2.6v.62h-1.95V9h1.63v.62h-1.63V11H10ZM13.35 11V7H16v.62h-2v1.07h1.67v.62H14v1.07h2V11h-2.65Z"/></svg>
